img/svg/stone-shape-7.svg

<svg width="36" height="36" viewBox="0 0 36 36" fill="none" xmlns="http://www.w3.org/2000/svg">
<path d="M21 8.00048L23.677 2.64648" stroke="#A39D94" stroke-miterlimit="10"/>
<path d="M23 9.99982L27.432 7.34082" stroke="#A39D94" stroke-miterlimit="10"/>
<path d="M15.0002 8.00048L12.3232 2.64648" stroke="#A39D94" stroke-miterlimit="10"/>
<path d="M12.9998 10.0001L8.55078 7.33105" stroke="#A39D94" stroke-miterlimit="10"/>
<path d="M21 28L23.728 33.456" stroke="#A39D94" stroke-miterlimit="10"/>
<path d="M23 26L27.428 28.657" stroke="#A39D94" stroke-miterlimit="10"/>
<path d="M23.9094 2.68764L23.7593 2.5H23.7597L27.5 7.17539V7.1756L27.3904 7.03864L23.9094 2.68764ZM23.9094 33.3124L24.6367 32.4038L23.7597 33.5H23.7592L23.9094 33.3124ZM12.0906 33.3124L12.2407 33.5H12.2403L8.5 28.8246V28.8244L8.60957 28.9614L12.0906 33.3124ZM8.60957 7.03864L8.5 7.1756V7.17539L12.2403 2.5H12.2407L12.0906 2.68764L8.60957 7.03864Z" stroke="#A39D94"/>
<path fill-rule="evenodd" clip-rule="evenodd" d="M14 30L11 26.979V9.021L14 6H22L25 9.021V26.979L22 30H14Z" stroke="#A39D94" stroke-width="1.01835" stroke-miterlimit="10"/>
<path fill-rule="evenodd" clip-rule="evenodd" d="M15 28L13 26V10L15 8H21L23 10V26L21 28H15Z" stroke="#A39D94" stroke-miterlimit="10"/>
<path d="M14.9998 28L12.2998 33.4" stroke="#A39D94" stroke-miterlimit="10"/>
<path d="M13.0003 26L8.52734 28.684" stroke="#A39D94" stroke-miterlimit="10"/>
</svg>

<svg width="36" height="36" viewBox="0 0 36 36" fill="none" xmlns="http://www.w3.org/2000/svg"><path d="M21 8l2.677-5.354M23 10l4.432-2.66M15 8l-2.677-5.354M13 10L8.55 7.331M21 28l2.728 5.456M23 26l4.428 2.657" stroke="#A39D94" stroke-miterlimit="10"/><path d="M23.91 2.688l-.15-.188h0l3.74 4.675v0l-.11-.136-3.48-4.351zm0 30.624l.727-.908-.877 1.096h0l.15-.188zm-11.82 0l.15.188h0L8.5 28.825v0l.11.136 3.48 4.351zM8.61 7.04l-.11.137v0L12.24 2.5h0l-.15.188-3.48 4.35z" stroke="#A39D94"/><path fill-rule="evenodd" clip-rule="evenodd" d="M14 30l-3-3.021V9.021L14 6h8l3 3.021v17.958L22 30h-8z" stroke="#A39D94" stroke-width="1.018" stroke-miterlimit="10"/><path fill-rule="evenodd" clip-rule="evenodd" d="M15 28l-2-2V10l2-2h6l2 2v16l-2 2h-6z" stroke="#A39D94" stroke-miterlimit="10"/><path d="M15 28l-2.7 5.4M13 26l-4.473 2.684" stroke="#A39D94" stroke-miterlimit="10"/></svg>
